src/Tye2.Hosting/wwwroot/img/brand-tye2-color.svg

<svg xmlns="http://www.w3.org/2000/svg" viewBox="0 0 48 16">
    <defs>
        <style>
            .cls-1,
            .icon-canvas-transparent {
                opacity: 0;
            }

            .cls-2,
            .icon-canvas-transparent {
                fill: #f6f6f6;
            }

            .white {
                fill: #fff;
                font-family: 'Segoe UI', Tahoma, Geneva, Verdana, sans-serif;
                font-size: 8px;
                font-weight: 600;
            }
        </style>
    </defs>
    <g id="canvas" class="cls-1">
        <path class="cls-2" d="M16,16H0V0H16Z" />
        <path class="icon-canvas-transparent" d="M16,16H0V0H16Z" />
    </g>
    <g id="iconBg">
        <path class="white"
            d="M3.738,9.788H.537a.554.554,0,0,1,0-1.108H4.769A5.977,5.977,0,0,1,7.612,9.906l-.147.1a3.919,3.919,0,0,1-1,.462,4.089,4.089,0,0,0-1.7-.678ZM.537,7.319H4.769A5.822,5.822,0,0,0,7.613,6.1c-.047-.032-.105-.072-.148-.1a3.742,3.742,0,0,0-1.124-.5,3.5,3.5,0,0,1-1.572.712H.537A.554.554,0,0,0,.537,7.319Zm9.805-3.464a3.821,3.821,0,0,0-1.627.34c-.09.032-.176.074-.265.111.25.155.492.314.718.47.143.1.284.189.426.281.07-.018.14-.038.211-.051h0a3.137,3.137,0,0,1,.537-.026,2.962,2.962,0,0,1,2.34,1.064h0a3.1,3.1,0,0,1,0,3.911h0a2.962,2.962,0,0,1-2.34,1.064,3.137,3.137,0,0,1-.537-.026h0c-.067-.013-.133-.032-.2-.048-.094.065-.187.126-.284.2-.256.185-.529.381-.836.567a4.28,4.28,0,0,0,1.017.339,3.668,3.668,0,0,0,.839.1,4.215,4.215,0,0,0,4.127-4.72A4.219,4.219,0,0,0,10.342,3.855ZM6.2,5.008h0a4.048,4.048,0,0,1,1.5.627h0c.762.487,2.4,1.748,3.536,1.686H12.85a2.347,2.347,0,0,0-.493-.993c-.036-.043-.081-.075-.12-.115h-1C9.442,5.99,8.472,4.323,6.5,3.954A4.105,4.105,0,0,0,2.173,5.78H3.607A2.987,2.987,0,0,1,6.2,5.008Zm9.268,2.313a.554.554,0,0,0,0-1.108h-.914a4.215,4.215,0,0,1,.334,1.108Zm0,1.36h-.6a4.433,4.433,0,0,1-.334,1.108h.932A.554.554,0,0,0,15.465,8.681ZM12.236,9.789c.037-.038.08-.068.114-.109a2.373,2.373,0,0,0,.5-1H11.233C10.1,8.619,8.458,9.881,7.7,10.367h0a4.062,4.062,0,0,1-1.5.626h0a2.99,2.99,0,0,1-2.6-.779l-1.449,0a4.17,4.17,0,0,0,5.135,1.587c1.667-.587,2.328-1.843,3.946-2.016ZM2.645,8.249a3.325,3.325,0,0,1,0-.5H1.5a3.779,3.779,0,0,0,0,.5Z" />
    </g>
    <text x="17" y="11" class="white">Tye2</text>
</svg>

<?xml version="1.0" encoding="UTF-8" standalone="no"?>
<svg
   viewBox="0 0 48 48"
   version="1.1"
   id="svg4"
   sodipodi:docname="brand-tye2-color.svg"
   width="48"
   height="48"
   inkscape:version="1.3.2 (091e20e, 2023-11-25, custom)"
   inkscape:export-filename="brand-tye2-color.png"
   inkscape:export-xdpi="960"
   inkscape:export-ydpi="960"
   xmlns:inkscape="http://www.inkscape.org/namespaces/inkscape"
   xmlns:sodipodi="http://sodipodi.sourceforge.net/DTD/sodipodi-0.dtd"
   xmlns="http://www.w3.org/2000/svg"
   xmlns:svg="http://www.w3.org/2000/svg">
  <sodipodi:namedview
     id="namedview4"
     pagecolor="#ffffff"
     bordercolor="#000000"
     borderopacity="0.25"
     inkscape:showpageshadow="2"
     inkscape:pageopacity="0.0"
     inkscape:pagecheckerboard="0"
     inkscape:deskcolor="#d1d1d1"
     inkscape:zoom="37.4375"
     inkscape:cx="23.986644"
     inkscape:cy="24.360601"
     inkscape:window-width="3588"
     inkscape:window-height="2025"
     inkscape:window-x="-1"
     inkscape:window-y="8"
     inkscape:window-maximized="0"
     inkscape:current-layer="svg4" />
  <defs
     id="defs1">
    <style
       id="style1">
            .cls-1,
            .icon-canvas-transparent {
                opacity: 0;
            }

            .cls-2,
            .icon-canvas-transparent {
                fill: #f6f6f6;
            }

            .white {
                fill: #fff;
            }

            .logo-text{
                font-family: 'Segoe UI', Tahoma, Geneva, Verdana, sans-serif;
                font-size: 8px;
                font-weight: 600;
            }

            .blue-light {
                fill: #0597ff;
            }

            .blue-dark {
                fill: #0452d2;
            }
        </style>
  </defs>
  <g
     id="canvas"
     class="cls-1">
    <path
       class="cls-2"
       d="M 16,16 H 0 V 0 h 16 z"
       id="path1" />
    <path
       class="icon-canvas-transparent"
       d="M 16,16 H 0 V 0 h 16 z"
       id="path2" />
  </g>
  <g
     id="iconBg"
     transform="matrix(2.6470704,0,0,3.002614,2.261723,-9.4556332)">
    <path
       class="blue-light"
       d="M 3.738,9.788 H 0.537 a 0.554,0.554 0 0 1 0,-1.108 h 4.232 a 5.977,5.977 0 0 1 2.843,1.226 l -0.147,0.1 a 3.919,3.919 0 0 1 -1,0.462 4.089,4.089 0 0 0 -1.7,-0.678 z M 0.537,7.319 H 4.769 A 5.822,5.822 0 0 0 7.613,6.1 C 7.566,6.068 7.508,6.028 7.465,6 A 3.742,3.742 0 0 0 6.341,5.5 3.5,3.5 0 0 1 4.769,6.212 H 0.537 a 0.554,0.554 0 0 0 0,1.107 z M 10.342,3.855 A 3.821,3.821 0 0 0 8.715,4.195 C 8.625,4.227 8.539,4.269 8.45,4.306 8.7,4.461 8.942,4.62 9.168,4.776 9.311,4.876 9.452,4.965 9.594,5.057 9.664,5.039 9.734,5.019 9.805,5.006 v 0 a 3.137,3.137 0 0 1 0.537,-0.026 2.962,2.962 0 0 1 2.34,1.064 v 0 a 3.1,3.1 0 0 1 0,3.911 v 0 a 2.962,2.962 0 0 1 -2.34,1.064 3.137,3.137 0 0 1 -0.537,-0.026 v 0 C 9.738,10.98 9.672,10.961 9.605,10.945 9.511,11.01 9.418,11.071 9.321,11.145 9.065,11.33 8.792,11.526 8.485,11.712 a 4.28,4.28 0 0 0 1.017,0.339 3.668,3.668 0 0 0 0.839,0.1 4.215,4.215 0 0 0 4.127,-4.72 4.219,4.219 0 0 0 -4.126,-3.576 z M 6.2,5.008 v 0 a 4.048,4.048 0 0 1 1.5,0.627 v 0 c 0.762,0.487 2.4,1.748 3.536,1.686 H 12.85 A 2.347,2.347 0 0 0 12.357,6.328 C 12.321,6.285 12.276,6.253 12.237,6.213 h -1 C 9.442,5.99 8.472,4.323 6.5,3.954 A 4.105,4.105 0 0 0 2.173,5.78 H 3.607 A 2.987,2.987 0 0 1 6.2,5.008 Z m 9.268,2.313 a 0.554,0.554 0 0 0 0,-1.108 h -0.914 a 4.215,4.215 0 0 1 0.334,1.108 z m 0,1.36 h -0.6 a 4.433,4.433 0 0 1 -0.334,1.108 h 0.932 A 0.55400023,0.55400023 0 0 0 15.465,8.681 Z M 12.236,9.789 C 12.273,9.751 12.316,9.721 12.35,9.68 a 2.373,2.373 0 0 0 0.5,-1 H 11.233 C 10.1,8.619 8.458,9.881 7.7,10.367 v 0 a 4.062,4.062 0 0 1 -1.5,0.626 v 0 A 2.99,2.99 0 0 1 3.6,10.214 H 2.151 a 4.17,4.17 0 0 0 5.135,1.587 C 8.953,11.214 9.614,9.958 11.232,9.785 Z M 2.645,8.249 a 3.325,3.325 0 0 1 0,-0.5 H 1.5 a 3.779,3.779 0 0 0 0,0.5 z"
       id="path3" />
  </g>
  <text
     x="4.3351026"
     y="42.200291"
     class="logo-text blue-light"
     id="text3"
     transform="scale(1.0673298,0.93691757)"
     style="stroke-width:3.04807;-inkscape-font-specification:'Segoe UI, Tahoma, Geneva, Verdana, sans-serif, Semi-Bold';font-family:'Segoe UI', Tahoma, Geneva, Verdana, sans-serif;font-weight:600;font-style:normal;font-stretch:normal;font-variant:normal;font-size:16px;font-variant-ligatures:normal;font-variant-caps:normal;font-variant-numeric:normal;font-variant-east-asian:normal;fill:#0597ff">Tye</text>
  <text
     x="32.447414"
     y="40.435726"
     class="logo-text blue-dark"
     id="text4"
     style="-inkscape-font-specification:'Segoe UI, Tahoma, Geneva, Verdana, sans-serif, Semi-Bold';font-family:'Segoe UI', Tahoma, Geneva, Verdana, sans-serif;font-weight:600;font-style:normal;font-stretch:normal;font-variant:normal;font-size:16px;font-variant-ligatures:normal;font-variant-caps:normal;font-variant-numeric:normal;font-variant-east-asian:normal;fill:#0452d2">2</text>
</svg>
